src/topics/icons/nativescript.svg

<svg height="256" preserveAspectRatio="xMidYMid" viewBox="0 0 256 256" width="256" xmlns="http://www.w3.org/2000/svg"><path d="m237.248313 18.7516875c12.040333 12.0403327 18.290896 27.122748 18.747421 45.247246v128.0021335c-.456525 18.120231-6.707088 33.206914-18.747421 45.247246-12.040332 12.040333-27.127015 18.290896-45.251513 18.751687h-127.9978665c-18.124498-.460791-33.2069133-6.711354-45.247246-18.751687-12.04033268-12.040332-18.29089518-27.127015-18.7516875-45.247246v-128.0021335c.46079232-18.124498 6.71135482-33.2069133 18.7516875-45.247246 12.0403327-12.04033268 27.122748-18.29089518 45.247246-18.7516875h127.9978665c18.124498.46079232 33.211181 6.71135482 45.251513 18.7516875zm-17.655173 102.9998835c-4.023399-4.002066-6.114031-9.023849-6.280428-15.065349v-42.6872885c-.127998-6.0414994-2.201564-11.0718155-6.220697-15.0909485-4.019132-4.0233997-9.053716-6.0926985-15.095215-6.2206964h-21.311645v106.6264894l-85.3703102-106.6264894h-21.3159113c-6.0414994.1279979-11.0718155 2.1972967-15.0909485 6.2206964-4.0233997 4.019133-6.0926985 9.0494491-6.2206964 15.0909485v42.6872885c-.1663972 6.0415-2.2570291 11.063283-6.2804286 15.065349-4.0191331 3.9978-9.0494493 6.079898-15.0909485 6.246296 6.0414992.170664 11.0718154 2.252762 15.0909485 6.250562 4.0233995 4.002067 6.1140314 9.02385 6.2804286 15.065349v42.687289c.1279979 6.037232 2.1972967 11.071816 6.2206964 15.090948 4.019133 4.019133 9.0494491 6.092699 15.0909485 6.220697h21.3159113v-106.62649l85.3703102 106.62649h21.311645c6.041499-.127998 11.076083-2.201564 15.095215-6.220697 4.019133-4.019132 6.092699-9.053716 6.220697-15.090948v-42.687289c.166397-6.041499 2.257029-11.063282 6.280428-15.065349 4.019134-3.9978 9.049449-6.079898 15.090949-6.250562-6.0415-.166398-11.071815-2.248496-15.090949-6.246296z" fill="#3c5afd"/></svg>

<?xml version="1.0" encoding="UTF-8" standalone="no" ?>
<svg width="256px" height="256px" viewBox="0 0 256 256" version="1.1" xmlns="http://www.w3.org/2000/svg" xmlns:xlink="http://www.w3.org/1999/xlink" preserveAspectRatio="xMidYMid">
    <g>
        <path d="M237.248313,18.7516875 C249.288646,30.7920202 255.539209,45.8744355 255.995734,63.9989335 L255.995734,192.001067 C255.539209,210.121298 249.288646,225.207981 237.248313,237.248313 C225.207981,249.288646 210.121298,255.539209 191.9968,256 L63.9989335,256 C45.8744355,255.539209 30.7920202,249.288646 18.7516875,237.248313 C6.71135482,225.207981 0.460792321,210.121298 0,192.001067 L0,63.9989335 C0.460792321,45.8744355 6.71135482,30.7920202 18.7516875,18.7516875 C30.7920202,6.71135482 45.8744355,0.460792321 63.9989335,0 L191.9968,0 C210.121298,0.460792321 225.207981,6.71135482 237.248313,18.7516875 L237.248313,18.7516875 L237.248313,18.7516875 Z M219.59314,121.751571 C215.569741,117.749505 213.479109,112.727722 213.312712,106.686222 L213.312712,63.9989335 C213.184714,57.9574341 211.111148,52.927118 207.092015,48.907985 C203.072883,44.8845853 198.038299,42.8152865 191.9968,42.6872886 L170.685155,42.6872886 L170.685155,149.313778 L85.3148448,42.6872886 L63.9989335,42.6872886 C57.9574341,42.8152865 52.927118,44.8845853 48.907985,48.907985 C44.8845853,52.927118 42.8152865,57.9574341 42.6872886,63.9989335 L42.6872886,106.686222 C42.5208914,112.727722 40.4302595,117.749505 36.40686,121.751571 C32.3877269,125.749371 27.3574107,127.831469 21.3159115,127.997867 C27.3574107,128.168531 32.3877269,130.250629 36.40686,134.248429 C40.4302595,138.250496 42.5208914,143.272279 42.6872886,149.313778 L42.6872886,192.001067 C42.8152865,198.038299 44.8845853,203.072883 48.907985,207.092015 C52.927118,211.111148 57.9574341,213.184714 63.9989335,213.312712 L85.3148448,213.312712 L85.3148448,106.686222 L170.685155,213.312712 L191.9968,213.312712 C198.038299,213.184714 203.072883,211.111148 207.092015,207.092015 C211.111148,203.072883 213.184714,198.038299 213.312712,192.001067 L213.312712,149.313778 C213.479109,143.272279 215.569741,138.250496 219.59314,134.248429 C223.612274,130.250629 228.642589,128.168531 234.684089,127.997867 C228.642589,127.831469 223.612274,125.749371 219.59314,121.751571 L219.59314,121.751571 L219.59314,121.751571 Z" fill="#3C5AFD"></path>
    </g>
</svg>
